X:116
T:March of St Timothy
M:4/4
K:G
B3 c d2 B2 | A3 B c2 A2 | G3 A B2 G2 | G2 F2 E2 D2 | 
E3 F G2 E2 | D2 G2 B2 d2 | c3 B A2 G2 | F2 A2 D2 c2 | 
B3 c d2 B2 | A3 B c2 A2 | G3 A B2 G2 | G2 F2 E2 D2 | 
E3 F G2 E2 | D2 G2 B2 d2 | cB A2 F2 A2 | G6 dd || 
c2 d2 A2 c2 | F2 A2 D2 dd | B2 d2 G2 B2 | D2 G2 B2 dd | 
c2 d2 A2 c2 | F2 A2 D2 dd | B2 D2 E2 F2 | G2 A2 B2 dd | 
c2 d2 A2 c2 | F2 A2 D2 dd | B2 d2 G2 B2 | D2 G2 B2 D2 | 
E3 F G2 E2 | D2 G2 B2 d2 | cB A2 F2 A2 | G8 || 

